src/xmb/monochrome/Casio - PV-1000-content.svg

<?xml version="1.0" encoding="UTF-8" standalone="no"?>
<!-- Created with Inkscape (http://www.inkscape.org/) -->

<svg
   xmlns:dc="http://purl.org/dc/elements/1.1/"
   xmlns:cc="http://creativecommons.org/ns#"
   xmlns:rdf="http://www.w3.org/1999/02/22-rdf-syntax-ns#"
   xmlns:svg="http://www.w3.org/2000/svg"
   xmlns="http://www.w3.org/2000/svg"
   xmlns:sodipodi="http://sodipodi.sourceforge.net/DTD/sodipodi-0.dtd"
   xmlns:inkscape="http://www.inkscape.org/namespaces/inkscape"
   id="svg3083"
   version="1.1"
   inkscape:version="0.48.5 r10040"
   width="64"
   height="64"
   xml:space="preserve"
   sodipodi:docname="Casio PV-1000-content.svg"
   inkscape:export-filename="/Users/margetts/Desktop/Icon Workshop/Monochrome Plus June/png/Casio PV-1000-content.png"
   inkscape:export-xdpi="360"
   inkscape:export-ydpi="360"><metadata
     id="metadata3089"><rdf:RDF><cc:Work
         rdf:about=""><dc:format>image/svg+xml</dc:format><dc:type
           rdf:resource="http://purl.org/dc/dcmitype/StillImage" /><dc:title></dc:title></cc:Work></rdf:RDF></metadata><defs
     id="defs3087" /><sodipodi:namedview
     pagecolor="#808080"
     bordercolor="#666666"
     borderopacity="1"
     objecttolerance="10"
     gridtolerance="10"
     guidetolerance="10"
     inkscape:pageopacity="0"
     inkscape:pageshadow="2"
     inkscape:window-width="1676"
     inkscape:window-height="1005"
     id="namedview3085"
     showgrid="false"
     inkscape:zoom="10.4125"
     inkscape:cx="20.264106"
     inkscape:cy="40"
     inkscape:window-x="4"
     inkscape:window-y="1"
     inkscape:window-maximized="1"
     inkscape:current-layer="g3091" /><g
     id="g3091"
     inkscape:groupmode="layer"
     inkscape:label="Casio PV-1000-content"
     transform="matrix(1.25,0,0,-1.25,0,64)"><g
       id="g3119"
       transform="translate(0,-3)"><path
         d="m 47.2,39.8 0,2.4 -2.4,0 0,-25.6 -38.4,0 0,25.6 -2.4,0 0,-2.4 0.8,0 0,-0.8 -0.8,0 0,-0.8 0.8,0 0,-0.8 -0.8,0 0,-0.8 0.8,0 0,-0.8 -0.8,0 0,-20.8 43.2,0 0,20.8 -0.8,0 0,0.8 0.8,0 0,0.8 -0.8,0 0,0.8 0.8,0 0,0.8 -0.8,0 0,0.8 0.8,0 z"
         style="fill:#ffffff;fill-opacity:1;fill-rule:nonzero;stroke:none"
         id="path3095"
         inkscape:connector-curvature="0" /><path
         inkscape:connector-curvature="0"
         id="path3097"
         style="fill:#ffffff;fill-opacity:1;fill-rule:nonzero;stroke:none"
         d="m 44,17.4 -36.8,0 0,24.8 36.8,0 0,-24.8 z" /></g></g></svg>

<svg xmlns="http://www.w3.org/2000/svg" xml:space="preserve" width="64" height="64"><path d="M47.2 39.8v2.4h-2.4V16.6H6.4v25.6H4v-2.4h.8V39H4v-.8h.8v-.8H4v-.8h.8v-.8H4V15h43.2v20.8h-.8v.8h.8v.8h-.8v.8h.8v.8h-.8v.8z" style="fill:#fff;fill-opacity:1;fill-rule:nonzero;stroke:none" transform="matrix(1.25 0 0 -1.25 0 67.75)"/><path d="M44 17.4H7.2v24.8H44z" style="fill:#fff;fill-opacity:1;fill-rule:nonzero;stroke:none" transform="matrix(1.25 0 0 -1.25 0 67.75)"/></svg>
